X: 16
T:Kesh Jig, The
M:6/8
L:1/8
Q:120
S:THSP
R:jig
Z:
K:G
"G"~G3 GAB|"D"~A3 ABd|"G"edd gdd|"C"edB "D"dBA|
"G"~G3 GAB|"D"~A3 ABd|"G"edd gdB|1 "D"AGF "G"G2D:|2 "D"AGF "G"G2A||:
"G"~B3 dBd|"C"ege dBG|"G"~B3 dBG|"D"ABA AGA|
"G"~B3 dBd|"C"ege dBd|"G"~g3 "D"aga|1 "G"bgf g2A:|2 "G"bgf g2D|]
